src/images/svg/home.svg

<svg width="38" height="38" fill="none" xmlns="http://www.w3.org/2000/svg"><path fill-rule="evenodd" clip-rule="evenodd" d="M6 0C2.68629 0 0 2.68629 0 6v26c0 3.3137 2.68629 6 6 6h26c3.3137 0 6-2.6863 6-6V6c0-3.31371-2.6863-6-6-6H6Zm9.9333 21.3594v8.1961H9.1V18.6274H5L18.6667 6.33325 32.3333 18.6274h-4.1v10.9281H21.4v-8.1961h-5.4667Z" fill="#4A56E2"/></svg>

<svg width="38" height="38" viewBox="0 0 38 38" fill="none" xmlns="http://www.w3.org/2000/svg">
<path fill-rule="evenodd" clip-rule="evenodd" d="M6 0C2.68629 0 0 2.68629 0 6V32C0 35.3137 2.68629 38 6 38H32C35.3137 38 38 35.3137 38 32V6C38 2.68629 35.3137 0 32 0H6ZM15.9333 21.3594V29.5555H9.1V18.6274H5L18.6667 6.33325L32.3333 18.6274H28.2333V29.5555H21.4V21.3594H15.9333Z" fill="#6E78E8"/>
</svg>
